X: 23989
T: Lodge Road, The
R: barndance
M: 4/4
K: Dmajor
|:(3ABc|d2 d>f e>dc>B|A2 A>B A2 (3GFE|D>FA>F D>FA>F|G>eF>d E2 (3ABc|
d2 d>f e>dc>B|A2 A>B A2 (3GFE|D>FA>F G>FE>F|D2 D>E D2:|
|:A2|d>ef>g a>gf>e|d>ef>g a2 a>f|g>ee>g f>dd>f|e>dc>B A>B (3cBA|
f2 f2 g2 (3gbg|e2 e2 f2 (3faf|d>fa>f d>fa>f|g2 f>g e2 A2|
f2 f2 g2 (3gbg|e2 e2 f2 (3faf|d>fa>f b>ge>c|d2 d>c d2:|

